assets/images/dornsans-2.svg

<svg xmlns="http://www.w3.org/2000/svg" viewBox="0 0 1920 1080"><defs><style>.a{fill:#dadada;}</style></defs><rect width="1920" height="1080"/><path class="a" d="M924.34,620.09s-67.23,42.09-164.7,42.09c-118.78,0-166.39-66.07-166.39-137.14s57.41-144,170.65-144,143.23,89.2,136,147.3H620.28v-30.6H846.69s2.91-78-87.54-78c-74.15,0-113.82,56.13-113.82,103.54,0,37.68,24,97.56,124,97.56,84,0,140.54-36.63,159.83-48.51Z"/><path class="a" d="M1703.06,623s-63.68,39.17-161.16,39.17c-118.8,0-166.42-66.07-166.42-137.14s57.41-144,170.68-144,143.25,89.2,136,147.3H1402.51v-30.6H1629s2.91-78-87.56-78c-74.16,0-113.83,56.13-113.83,103.54,0,37.68,24,97.56,124,97.56,84,0,153.71-40.68,196.19-87.07Z"/><path class="a" d="M1311.59,623s-63.61,39.17-161,39.17c-118.67,0-166.23-66.07-166.23-137.14s57.35-144,170.49-144,143.09,89.2,135.86,147.3H1011.37v-30.6h226.2s2.9-78-87.46-78c-74.09,0-113.71,56.13-113.71,103.54,0,37.68,24,97.56,123.91,97.56a275.66,275.66,0,0,0,176.53-63Z"/><path class="a" d="M533.52,620s-67.83,42.17-165.18,42.17c-118.64,0-166.2-66.07-166.2-137.14s57.34-144,170.46-144,143.06,89.2,135.83,147.3H229.14v-30.6H455.29s2.9-78-87.44-78c-74.07,0-113.69,56.13-113.69,103.54,0,37.68,24,97.56,123.88,97.56,83.93,0,138.16-33.59,155.48-44.64Z"/></svg>

<svg width="1920" height="1080" viewBox="0 0 1920 1080" fill="black" xmlns="http://www.w3.org/2000/svg">
<rect width="1920" height="1080" fill="black" shape-rendering="crispEdges"/>
<path d="M924.34 620.09C924.34 620.09 857.11 662.18 759.64 662.18C640.86 662.18 593.25 596.11 593.25 525.04C593.25 453.97 650.66 381.04 763.9 381.04C877.14 381.04 907.13 470.24 899.9 528.34H620.28V497.74H846.69C846.69 497.74 849.6 419.74 759.15 419.74C685 419.74 645.33 475.87 645.33 523.28C645.33 560.96 669.33 620.84 769.33 620.84C853.33 620.84 909.87 584.21 929.16 572.33L924.34 620.09Z" fill="#DADADA"/>
<path d="M1703.06 623C1703.06 623 1639.38 662.17 1541.9 662.17C1423.1 662.17 1375.48 596.1 1375.48 525.03C1375.48 453.96 1432.89 381.03 1546.16 381.03C1659.43 381.03 1689.41 470.23 1682.16 528.33H1402.51V497.73H1629C1629 497.73 1631.91 419.73 1541.44 419.73C1467.28 419.73 1427.61 475.86 1427.61 523.27C1427.61 560.95 1451.61 620.83 1551.61 620.83C1635.61 620.83 1705.32 580.15 1747.8 533.76L1703.06 623Z" fill="#DADADA"/>
<path d="M1311.59 623C1311.59 623 1247.98 662.17 1150.59 662.17C1031.92 662.17 984.36 596.1 984.36 525.03C984.36 453.96 1041.71 381.03 1154.85 381.03C1267.99 381.03 1297.94 470.23 1290.71 528.33H1011.37V497.73H1237.57C1237.57 497.73 1240.47 419.73 1150.11 419.73C1076.02 419.73 1036.4 475.86 1036.4 523.27C1036.4 560.95 1060.4 620.83 1160.31 620.83C1224.71 621.094 1287.16 598.805 1336.84 557.83L1311.59 623Z" fill="#DADADA"/>
<path d="M533.52 620C533.52 620 465.69 662.17 368.34 662.17C249.7 662.17 202.14 596.1 202.14 525.03C202.14 453.96 259.48 381.03 372.6 381.03C485.72 381.03 515.66 470.23 508.43 528.33H229.14V497.73H455.29C455.29 497.73 458.19 419.73 367.85 419.73C293.78 419.73 254.16 475.86 254.16 523.27C254.16 560.95 278.16 620.83 378.04 620.83C461.97 620.83 516.2 587.24 533.52 576.19V620Z" fill="#DADADA"/>
</svg>
